src/assets/images/reactions/men/small/like.svg

<svg width="15" height="15" viewBox="0 0 15 15" fill="none" xmlns="http://www.w3.org/2000/svg">
<g clip-path="url(#clip0_860_4989)">
<path d="M0 14.2462V8.53846L2.74286 8L3.77143 8.53846L4 14.2462L3.31429 15L0.685714 14.8923L0 14.2462Z" fill="#00819D"/>
<path d="M4 14.542V7.67176L5.77778 5.61069L7.33333 2.06107L7.44444 0.687023L7.88889 0L9 0.229008L9.66667 1.60305L8.77778 5.03817L9.11111 5.83969L12.1111 5.61069L13.7778 6.29771L14.5 8L14 10.9924L13.3333 12.7099L12.7778 14.1985L11.1111 15L4 14.542Z" fill="#FACCB4"/>
<path fill-rule="evenodd" clip-rule="evenodd" d="M7.9274 0.0201592C7.6668 0.0982215 7.46531 0.297821 7.35347 0.588773C7.2662 0.815743 7.22077 1.19356 7.2435 1.50322L7.26315 1.77121L7.08436 2.20728C6.49282 3.6501 5.75989 5.03066 5.19985 5.7571C5.07722 5.91616 4.86038 6.15498 4.71801 6.28785C4.42729 6.55911 4.28907 6.73055 4.08354 7.07501L3.94231 7.31163L3.7397 7.24442C3.5421 7.17892 3.50743 7.17722 2.34427 7.17648C1.07491 7.17566 1.00087 7.18253 0.707951 7.32771C0.450962 7.45508 0.18927 7.7588 0.0679346 8.07046C0.0136428 8.20986 0.0103569 8.35014 0.00176548 10.9014C-0.00381141 12.5644 0.00402638 13.6563 0.0224151 13.7716C0.111434 14.329 0.57917 14.7833 1.14635 14.8631C1.2509 14.8778 1.79768 14.8899 2.36139 14.8899C3.48356 14.89 3.67284 14.8705 3.94457 14.7265L4.09397 14.6474L4.64451 14.7112C6.05402 14.8746 7.0433 14.9353 9.04275 14.9811C10.1452 15.0063 10.6127 15.0063 10.9268 14.981C12.1711 14.8808 13.1028 14.4964 13.5758 13.8882C13.8445 13.5426 13.9526 13.224 13.957 12.7642C13.9598 12.4753 13.9614 12.4692 14.058 12.3681C14.335 12.0782 14.544 11.7217 14.6266 11.3982C14.6952 11.1293 14.6906 10.7033 14.616 10.4192L14.5562 10.1917L14.648 10.0619C14.8923 9.71645 15.0256 9.27768 14.9959 8.91755C14.9725 8.63411 14.8527 8.28032 14.7046 8.05737L14.5821 7.87288L14.6274 7.74342C14.7531 7.38453 14.752 6.9298 14.6245 6.58901C14.5431 6.37125 14.3186 6.06683 14.1221 5.90763C13.3756 5.30305 11.9197 5.16966 10.0266 5.53245C9.77336 5.58097 9.54717 5.62075 9.52399 5.62081C9.48966 5.6209 9.48553 5.57455 9.50169 5.37014C9.52625 5.05906 9.61512 4.68961 9.84706 3.93413C10.0735 3.19645 10.1436 2.88098 10.1811 2.43094C10.2132 2.04444 10.1892 1.70532 10.1089 1.41126C9.92903 0.752935 9.38722 0.229968 8.71112 0.0621093C8.46993 0.00223514 8.0605 -0.0196786 7.9274 0.0201592ZM8.56456 0.900611C9.0149 1.04823 9.24464 1.35819 9.30722 1.9026C9.35849 2.34856 9.27143 2.8563 8.99621 3.7164C8.70675 4.62096 8.59934 5.17778 8.62337 5.64938C8.65135 6.19893 8.90577 6.50018 9.34249 6.50082C9.40184 6.50091 9.68672 6.45441 9.97554 6.3975C10.8656 6.22208 11.0978 6.19708 11.8572 6.19494C12.4154 6.19336 12.6033 6.20342 12.8212 6.24651C13.7293 6.42613 14.0565 6.93311 13.7252 7.64714C13.5759 7.96896 13.5846 8.02951 13.8206 8.31139C14.241 8.81377 14.2235 9.25976 13.7622 9.79355C13.5971 9.98452 13.5812 10.1402 13.6999 10.4035C13.7766 10.5739 13.7854 10.6264 13.7859 10.916C13.7865 11.214 13.7797 11.2521 13.6982 11.414C13.6374 11.5346 13.5273 11.6683 13.3458 11.842C13.1902 11.9908 13.0729 12.1288 13.0602 12.178C13.0483 12.2238 13.0558 12.3827 13.0767 12.5311C13.1212 12.8466 13.0936 13.0266 12.9654 13.2557C12.7464 13.6473 12.1646 13.9399 11.3058 14.0903C11.0536 14.1345 10.84 14.1408 9.76208 14.1355C7.70092 14.1254 6.11326 14.0425 4.7881 13.8757L4.65244 13.8587L4.66227 11.2579C4.66914 9.4412 4.6617 8.56327 4.63755 8.34568C4.60312 8.03549 4.60333 8.03332 4.68958 7.81764C4.84242 7.43549 5.00773 7.19936 5.37533 6.8383C5.94447 6.27931 6.4 5.61427 6.97152 4.50802C7.32926 3.81561 7.64922 3.12059 7.93428 2.41674L8.133 1.9261L8.12606 1.49266C8.12226 1.25428 8.12995 1.00974 8.14312 0.94922C8.16528 0.847602 8.17511 0.839212 8.27221 0.839212C8.33 0.839212 8.46158 0.866846 8.56456 0.900611ZM3.55244 8.09246C3.60724 8.12878 3.68046 8.19572 3.71516 8.24128C3.77808 8.32392 3.77823 8.33064 3.77823 11.0156V13.7072L3.69695 13.8267C3.55292 14.0385 3.51672 14.0438 2.26559 14.034C1.21825 14.0259 1.17168 14.0232 1.09179 13.9651C1.04603 13.9318 0.980616 13.8682 0.946431 13.8236C0.884844 13.7434 0.884211 13.7175 0.876283 11.066L0.868264 8.38942L0.937327 8.26237C1.06614 8.02531 1.05926 8.02645 2.33387 8.02645C3.44461 8.02645 3.4535 8.02692 3.55244 8.09246Z" fill="#E2A88A"/>
<path d="M3.62025 7H0.379747C0.170138 7 0 7.18786 0 7.4193V14.5754C0 14.8071 0.170138 14.9947 0.379747 15H2.81012C3.27568 14.9947 3.67948 14.6981 3.87469 14.2671C3.95494 14.0907 4 13.8914 4 13.6809V7.4193C4 7.18783 3.82986 7 3.62025 7Z" fill="#00819D"/>
</g>
<defs>
<clipPath id="clip0_860_4989">
<rect width="15" height="15" fill="white"/>
</clipPath>
</defs>
</svg>

<svg xmlns="http://www.w3.org/2000/svg" width="15" height="15" fill="none">
  <g clip-path="url(#a)">
    <path fill="#00819D" d="M0 14.246V8.538L2.743 8l1.028.538L4 14.246 3.314 15l-2.628-.108L0 14.246Z"/>
    <path fill="#FACCB4" d="M4 14.542v-6.87L5.778 5.61l1.555-3.55.111-1.374L7.89 0 9 .229l.667 1.374-.89 3.435.334.802 3-.23 1.667.688L14.5 8l-.5 2.992-.667 1.718-.555 1.488L11.11 15 4 14.542Z"/>
    <path fill="#E2A88A" fill-rule="evenodd" d="M7.927.02c-.26.078-.462.278-.574.569-.087.227-.132.605-.11.914l.02.268-.179.436C6.493 3.65 5.76 5.031 5.2 5.757c-.123.16-.34.398-.482.53-.29.272-.429.444-.634.788l-.142.237-.202-.068c-.198-.065-.233-.067-1.396-.068-1.27 0-1.343.007-1.636.152-.257.127-.519.43-.64.742-.054.14-.058.28-.066 2.831-.006 1.663.002 2.755.02 2.87a1.337 1.337 0 0 0 1.124 1.092c.105.015.652.027 1.215.027 1.123 0 1.312-.02 1.584-.164l.149-.079.55.064c1.41.164 2.4.224 4.399.27 1.102.025 1.57.025 1.884 0 1.244-.1 2.176-.485 2.649-1.093.268-.345.377-.664.381-1.124.003-.289.004-.295.101-.396.277-.29.486-.646.569-.97a2.26 2.26 0 0 0-.011-.979l-.06-.227.092-.13c.244-.346.378-.784.348-1.144a2.025 2.025 0 0 0-.291-.86l-.123-.185.045-.13a1.801 1.801 0 0 0-.003-1.154 1.899 1.899 0 0 0-.502-.681c-.746-.605-2.202-.738-4.095-.376-.254.049-.48.089-.503.089-.034 0-.038-.046-.022-.25.024-.312.113-.681.345-1.437.226-.738.297-1.053.334-1.503a2.947 2.947 0 0 0-.072-1.02A1.934 1.934 0 0 0 8.71.062C8.47.002 8.061-.02 7.927.02Zm.638.88c.45.148.68.458.742 1.003.051.446-.036.953-.31 1.813-.29.905-.398 1.462-.374 1.933.028.55.283.851.72.852.059 0 .344-.047.633-.104.89-.175 1.122-.2 1.881-.202.558-.002.746.008.964.052.908.18 1.236.686.904 1.4-.15.322-.14.383.096.664.42.503.402.949-.059 1.483-.165.19-.18.346-.062.61.077.17.085.222.086.512 0 .298-.006.336-.088.498-.06.12-.17.254-.352.428-.156.149-.273.287-.286.336-.012.046-.004.205.017.353.044.316.017.496-.112.725-.219.391-.8.684-1.66.834-.251.044-.465.05-1.543.046-2.061-.01-3.649-.093-4.974-.26l-.136-.017.01-2.601c.007-1.817 0-2.695-.024-2.912-.035-.31-.035-.313.052-.528.152-.383.318-.619.685-.98.57-.559 1.025-1.224 1.597-2.33.357-.692.677-1.387.962-2.091l.199-.49-.007-.434a4.115 4.115 0 0 1 .017-.544c.022-.101.032-.11.13-.11.057 0 .189.028.292.062ZM3.552 8.093a.798.798 0 0 1 .163.15c.063.082.063.089.063 2.774v2.691l-.081.12c-.144.212-.18.217-1.431.207-1.048-.008-1.094-.01-1.174-.069a.851.851 0 0 1-.146-.141c-.061-.08-.062-.107-.07-2.758L.868 8.389l.07-.127c.128-.237.121-.236 1.396-.236 1.11 0 1.12 0 1.218.066Z" clip-rule="evenodd"/>
    <path fill="#00819D" d="M3.62 7H.38C.17 7 0 7.188 0 7.42v7.155c0 .232.17.42.38.425h2.43c.466-.005.87-.302 1.065-.733.08-.176.125-.376.125-.586V7.419C4 7.188 3.83 7 3.62 7Z"/>
  </g>
  <defs>
    <clipPath id="a">
      <path fill="#fff" d="M0 0h15v15H0z"/>
    </clipPath>
  </defs>
</svg>
